src/categories-icons-sprite/categories/svg-cat-hobby-sewing.svg

<svg width="32" height="32" viewBox="0 0 32 32" fill="none" xmlns="http://www.w3.org/2000/svg">
<path class="p-ECECF1" d="M26.5331 18.2466C26.5331 25.3119 20.8188 31.0871 13.7535 31.0871C6.68825 31.0871 0.913086 25.3119 0.913086 18.2466C0.913086 11.1814 6.68825 5.46704 13.7535 5.46704C20.8188 5.46704 26.5331 11.1814 26.5331 18.2466Z" fill="#B9DFFC"/>
<path class="p-D3D3D8" d="M26.5325 18.2466C26.5325 25.3119 20.8182 31.0871 13.7529 31.0871V5.46704C20.8182 5.46704 26.5325 11.1813 26.5325 18.2466Z" fill="#A1D1FD"/>
<path class="p-714C2F" d="M11.0151 1.75488H9.18945V5.99655H11.0151V1.75488Z" fill="#58ADE5"/>
<path class="p-523522" d="M18.3178 1.75488H16.4922V5.99655H18.3178V1.75488Z" fill="#4D98CB"/>
<path class="p-895D3C" d="M20.1429 0H7.36328V2.66776H20.1429V0Z" fill="#B9DFFC"/>
<path class="p-EBAE56" d="M21.9692 15.5083H20.1436V20.9853H21.9692V15.5083Z" fill="#76B7E2"/>
<path class="p-EBAE56" d="M23.7944 17.334H18.3174V19.1596H23.7944V17.334Z" fill="#76B7E2"/>
<path class="p-714C2F" d="M20.1427 0H13.7529V2.66776H20.1427V0Z" fill="#5FBEFF"/>
<path class="p-FF637B" d="M13.7533 4.5542C6.19507 4.5542 0 10.6884 0 18.2466C0 25.8049 6.19507 31.9999 13.7533 31.9999C21.3115 31.9999 27.4457 25.8049 27.4457 18.2466C27.4457 10.6884 21.3115 4.5542 13.7533 4.5542ZM13.7533 30.1743C7.21737 30.1743 1.82566 24.7824 1.82566 18.2466C1.82566 11.7107 7.21737 6.37986 13.7533 6.37986C20.2892 6.37986 25.6201 11.7107 25.6201 18.2466C25.6201 24.7824 20.2892 30.1743 13.7533 30.1743Z" fill="#5FBEFF"/>
<path class="p-E63950" d="M27.4454 18.2466C27.4454 25.8049 21.3112 31.9999 13.7529 31.9999V30.1743C20.2888 30.1743 25.6197 24.7824 25.6197 18.2466C25.6197 11.7107 20.2888 6.37986 13.7529 6.37986V4.5542C21.3112 4.5542 27.4454 10.6884 27.4454 18.2466Z" fill="#4D98CB"/>
<path class="p-E63950" d="M25.5924 4.56738C25.3249 4.51833 25.0495 4.49338 24.7678 4.49338H22.0293V2.66772H24.7678C25.16 2.66772 25.5442 2.70339 25.9169 2.77027L25.5924 4.56738Z" fill="#4D98CB"/>
<path class="p-E63950" d="M31.1573 24.5758H29.3317V9.05771C29.3317 8.00315 28.9635 6.97445 28.2949 6.16058L29.7052 5.00171C30.642 6.14092 31.1573 7.58148 31.1573 9.05771V24.5758Z" fill="#4D98CB"/>
<path class="p-BABAC0" d="M26.0353 5.96623V5.96532H26.0344C24.9667 4.89755 24.9632 3.16507 26.0353 2.09292L26.484 1.64422C27.552 0.576274 29.2885 0.576274 30.3564 1.64422C31.4244 2.71217 31.4244 4.44868 30.3564 5.51663L29.9077 5.96532C28.8356 7.03747 27.1031 7.034 26.0353 5.96623Z" fill="#B9DFFC"/>
<path class="p-BABAC0" d="M27.325 5.96511L26.0342 4.67432L14.4466 16.2619L15.7374 17.5527L27.325 5.96511Z" fill="#B9DFFC"/>
<path class="p-FF637B" d="M16.4915 18.064C16.4733 16.8957 15.6882 15.8915 14.5563 15.5446C14.7937 14.5954 14.5015 13.6094 13.753 12.9339C13.6069 12.8061 13.461 12.6784 13.2784 12.5871C12.2377 11.9847 10.978 12.1855 10.1017 12.9888C9.24372 12.1855 8.00215 11.9847 6.88856 12.6053C5.86619 13.2079 5.3732 14.3763 5.64711 15.5629C4.5152 15.9098 3.71191 16.8957 3.71191 18.1918C3.73017 19.3968 4.55178 20.3826 5.64711 20.7113C5.3732 21.8614 5.84793 23.0299 6.92507 23.6688C7.9657 24.2713 9.2254 24.0888 10.1017 23.2855C10.9597 24.0705 12.2013 24.2896 13.3149 23.6506C13.4791 23.5593 13.6252 23.4497 13.753 23.3219C14.4834 22.683 14.7937 21.6607 14.5563 20.693C15.6882 20.3461 16.4915 19.3603 16.4915 18.064Z" fill="#5FBEFF"/>
<path class="p-E63950" d="M13.7529 23.3218V12.9338C14.5014 13.6093 14.7936 14.5952 14.5562 15.5445C15.6881 15.8914 16.4732 16.8956 16.4914 18.0639C16.4914 19.3602 15.6881 20.346 14.5562 20.6929C14.7936 21.6605 14.4833 22.6829 13.7529 23.3218Z" fill="#4D98CB"/>
<path class="p-FBC56D" d="M8.73612 20.5065C7.42749 19.7533 6.97551 18.0756 7.72878 16.7661C8.48205 15.4574 10.1624 15.0073 11.4683 15.7587H11.4692C12.7779 16.512 13.2299 18.1897 12.4766 19.4992C11.7182 20.8132 10.0408 21.2563 8.73612 20.5065Z" fill="#B9DFFC"/>
</svg>

<svg width="32" height="32" fill="none" xmlns="http://www.w3.org/2000/svg"><path class="p-ECECF1" d="M26.533 18.247c0 7.065-5.714 12.84-12.78 12.84-7.065 0-12.84-5.775-12.84-12.84 0-7.066 5.775-12.78 12.84-12.78 7.066 0 12.78 5.714 12.78 12.78z" fill="#B9DFFC"/><path class="p-D3D3D8" d="M26.532 18.247c0 7.065-5.714 12.84-12.78 12.84V5.467c7.066 0 12.78 5.714 12.78 12.78z" fill="#A1D1FD"/><path class="p-714C2F" d="M11.015 1.755H9.19v4.242h1.826V1.755z" fill="#58ADE5"/><path class="p-523522" d="M18.318 1.755h-1.826v4.242h1.826V1.755z" fill="#4D98CB"/><path class="p-895D3C" d="M20.143 0H7.363v2.668h12.78V0z" fill="#B9DFFC"/><path class="p-EBAE56" d="M21.97 15.508h-1.826v5.477h1.825v-5.477z" fill="#76B7E2"/><path class="p-EBAE56" d="M23.794 17.334h-5.477v1.826h5.477v-1.826z" fill="#76B7E2"/><path class="p-714C2F" d="M20.143 0h-6.39v2.668h6.39V0z" fill="#5FBEFF"/><path class="p-FF637B" d="M13.753 4.554C6.195 4.554 0 10.688 0 18.247 0 25.805 6.195 32 13.753 32s13.693-6.195 13.693-13.753c0-7.559-6.135-13.693-13.693-13.693zm0 25.62c-6.536 0-11.927-5.392-11.927-11.927 0-6.536 5.391-11.867 11.927-11.867S25.62 11.71 25.62 18.247c0 6.535-5.33 11.927-11.867 11.927z" fill="#5FBEFF"/><path class="p-E63950" d="M27.445 18.247C27.445 25.805 21.311 32 13.753 32v-1.826c6.536 0 11.867-5.392 11.867-11.927 0-6.536-5.331-11.867-11.867-11.867V4.554c7.558 0 13.692 6.134 13.692 13.693zM25.592 4.567a4.567 4.567 0 00-.824-.074h-2.739V2.668h2.739c.392 0 .776.035 1.149.102l-.325 1.797zM31.157 24.576h-1.825V9.058a4.575 4.575 0 00-1.037-2.897L29.705 5a6.4 6.4 0 011.452 4.057v15.518z" fill="#4D98CB"/><path class="p-BABAC0" d="M26.035 5.966a2.737 2.737 0 010-3.873l.449-.449a2.74 2.74 0 013.872 0 2.74 2.74 0 010 3.873l-.448.448a2.737 2.737 0 01-3.873.001z" fill="#B9DFFC"/><path class="p-BABAC0" d="M27.325 5.965l-1.29-1.29-11.588 11.587 1.29 1.29L27.325 5.966z" fill="#B9DFFC"/><path class="p-FF637B" d="M16.491 18.064c-.018-1.168-.803-2.172-1.935-2.52a2.623 2.623 0 00-.803-2.61c-.146-.128-.292-.256-.475-.347-1.04-.602-2.3-.402-3.176.402-.858-.804-2.1-1.004-3.213-.384-1.023.603-1.516 1.771-1.242 2.958-1.132.347-1.935 1.333-1.935 2.629.018 1.205.84 2.19 1.935 2.52-.274 1.15.2 2.318 1.278 2.957 1.04.602 2.3.42 3.177-.384.858.785 2.1 1.005 3.213.366.164-.092.31-.201.438-.33.73-.638 1.04-1.66.803-2.628 1.132-.347 1.935-1.333 1.935-2.629z" fill="#5FBEFF"/><path class="p-E63950" d="M13.753 23.322V12.934a2.623 2.623 0 01.803 2.61c1.132.347 1.917 1.352 1.935 2.52 0 1.296-.803 2.282-1.935 2.629.238.967-.073 1.99-.803 2.629z" fill="#4D98CB"/><path class="p-FBC56D" d="M8.736 20.506a2.742 2.742 0 01-1.007-3.74 2.744 2.744 0 013.74-1.007 2.743 2.743 0 011.008 3.74 2.743 2.743 0 01-3.74 1.008z" fill="#B9DFFC"/></svg>
